X:1
T:Je ne mange point de porc
T:Je ne mange point de porc
T:Claudin de Sermisy
C:Claudin de Sermisy
%%score [ 1 2 3 4 ]
L:1/8
Q:1/4=200
M:3/2
K:F
V:1 treble nm="Soprano" snm="S"
V:2 treble nm="Alto" snm="A"
V:3 treble-8 nm="Tenor" snm="T"
V:4 bass nm="Bass" snm="B"
V:1
 z4 z4 A4 | A8 A4 | G8 F4 | B8 A2 G2 |[M:2/2] A2 cB A2 AG | AGFE F2 F2 | E2 z2 A2 AA | %7
w: Te-|tin, qui|n'as rien|que la *|peau, Te- tin flac, te- tin|de * * * * dra-|peau, Gran- de te-|
 B2 GG G2 F2 | B2 B2 z BBB | BAGB A2 AA | B2 AF G2 F2- | F2 E2 F4 | c2 cc cBAA | G2 G2 GGGF | %14
w: ti- ne, lon- gue te-|tas- se, Te- tin, doy-|je di- re be- zas- se, be-|zas- se, be- zas- *|* * se,|Te- tin au grand vi- lain bout|noir, Com- me ce- luy d'un|
 GA B3 A A2- | A2 G2 (3:2:2A4 A2 |[M:6/4] A4 A2 B4 A2 | G4 F2 E4 F2 | G4 A2 B4 B2 | %19
w: en- * * * *|* ton- noir, Te-|tin, qui brim- balle|à tous coups Sans|estre es- bran- lé,|
[M:2/2] (3:2:2B4 B2 A2 A2 | AAAA GA B2 | A2 A2 AAAB | AG F2 G4 | z2 A2 A3 A | GAGF G4 | %25
w: ne se- coux, Bien|se peult van- ter, qui te tas-|te D'a- voir mis la main|à la pas- te.|Te- tin gril-|lé, Te- tin pen- dant,|
 z2 A2 A3 A | GABc dc c2- | c2 =B2 c2 z G | GGAF GA B2 | z2 BB B/B/B/B/BA | A2 AA A/A/A/A/GF | %31
w: Te- tin fles-|try, * * * * Te- tin|* ren- dant Vi-|lai- ne bourbe en lieu de laict,|Le Di- a- ble te faict bien si|laid, Le Di- a- ble te faict bien si|
 E2 c2 BAGA | BG A2 z4 | z2 A2 G3 F | GGGA B2 G2 | z AGF GGGA | B4 (3:2:2G4 A2 | %37
w: laid, Te- tin pour trip- pe|re- pu- té,|Ou des- ro-|bé en quel- que sor- te|De quel- que vieil- le chè- vre|mor- te. Te-|
[M:6/4] A4 G2 F4 E2 | D4 D2 C4 F2 | F4 E2 D4 D2 |[M:2/2] (3:2:2C4 C2 C2 z F | ABcB AG A2 | %42
w: tin pro- pre pour|en En- fer Nour-|rir l'en- fant de|Lu- ci- fer, Te-|tin bo- yau long d'u- ne gau-|
 F3 E/D/ E2 z F | ABcB AG A2 | F3 E/D/ E2 F2 | F2 F2 G2 A2 | A2 G2 AAcB | A2 z2 z AcB | %48
w: * * * le, Te-|tasse à je- ter sur l'é- pau-|* * * le Pour|fai- re (tout bien|com- pas- sé) Ung chap- pe-|ron, ung chap- pe-|
 A2 z G F A2 G/F/ | E F2 E FAAG |[M:3/2] F2 z F FFFF GA B2 | B8 B4 | A4 A4 A4 | G8 G4 | %54
w: ron du temps * * *|* * pas- sé, du temps pas-|sé. Quand on te voyt, il vient à maintz|Une en-|vy- e de-|dans les|
[M:2/2] F2 c2 ccAc | BA G2 A4 | z2 G2 GGEF | GA BGAGFE | F4 (3:2:2E4 F2 |[M:6/4] G4 A2 B4 A2 | %60
w: mains De te pren- dreIa- vec|des gants dou- bles|Pour en don- ner cinq|ou six cou- * * * * *|* ples De|souf- flets sur le|
 G4 F2 G2 G2 F2 | E4 F2 G4 F2 |[M:2/2] (3E2 D2 E2 F2 A2 | z2 A2 z2 c2 | cccB AA G2 | z2 c2 cccB | %66
w: nez de cel- le Qui|te ca- che sous|son ais- sel- le. Va,|va, va|grand vi- lain Te- tin pu- ant,|Tu four- ni- roys bien|
 AAGG G2 A2 | B2 A2 G2 F2 | E2 z F A2 G2 | F3 E D2 D2 | C6 z2 | c4 c2 B2 | A2 G2 F2 A2 | %73
w: en su- ant De ci- vet-|tes et de par-|fums Pour fai- re|cent mil- le de-|functz,|pour fai- re|cent mil- le de-|
 G2 F2- F2 E2 | F2 A2 AAAA | GA B2 A2 G2 | GGGG GG F2 | G3 A A2 z c | A2 c2 B2 A2 | B2 A2 G2 F2 | %80
w: functz. * * *|* Te- tin de lay- deur|des- pi- teu- se, Te-|tin, dont Na- ture est hon- teu-|se, Te- tin, te-|tin des vi- lains|le plus bra- ve,|
 B2 B2 z2 G2 | GGGG GG F2 | F2 B2 BBBB | B2 B2 B4 | A2 AB cB A2- | AG FE/D/ E2 z2 | G2 z2 A2 z2 | %87
w: te- tin, Te-|tin, dont le bout tous- jours ba-|ve, Te- tin, dont le bout|tous- jours ba-|ve, Te- tin faict de poix|* et de * * glus.|Bien, bien,|
 G2 BA G/G/FFE | F2 z2 B2 z2 | A2 BA G/G/FFE | F4 c2 cc | A2 z F AA G2 | B4 B2 B2 | B4 B2 A2 | %94
w: bien, bien ma plu- me, n'en par- lez|plus, Bien,|bien, bien ma plu- me, n'en par- lez|plus, Lais- sez- le|là, lais- sez- le là|ven- tre sainct|Geor- ge, ven-|
 A2 A2 B4 | A2 GF G4- | G4 z2 B2 | BAGF ED E2 | F4 B2 BB | BB A3 G/F/ E2 | DF F3 FED | %101
w: tre sainct Geor-|* * * ge,|* Vous|me fe- riez ren- dre ma gor-|ge, vous me fe-|riez ren- dre ma * gor-|ge, vous me fe- riez ren-|
 EFEE z F F2 | F8 |] %103
w: dre ma gor- ge, ma gor-|ge.|
V:2
 z4 z4 F4 | F8 F4 | E8 D4 | F8 F4 |[M:2/2] F2 FG F2 FD | F2 C2 C2 z2 | G2 EE F2 F2 | D2 EE E2 D2 | %8
w: Te-|tin, qui|n'as rien|que la|peau, Te- tin flac, te- tin|de dra- peau,|Gran- de te- ti- ne,|lon- gue te- tas- se,|
 F2 FF FFFG- | G F2 E F2 z F | G2 FD E2 D2 | C4 C2 CC | F3 E FD F2 | E2 EE EDEC | E2 F4 E2 | %15
w: Te- tin, doy- je di- re be-|* zas- * se, be-|zas- se, be- zas- *|se, Te- tin au|grand vi- lain bout noir,|Com- me ce- luy d'un en- ton-|noir, * *|
 F2 ED (3:2:2C4 F2 |[M:6/4] F4 F2 F4 F2 | D4 D2 G4 C2 | E4 E2 F4 F2 |[M:2/2] (3:2:2F4 F2 F2 z F | %20
w: * * * * Te-|tin, qui brim- balle|à tous coups Sans|estre es- bran- lé,|ne se- coux, Bien|
 FFFF EF G2 | F2 F2 F3 F | FEDD D2 D2 | z2 F2 F3 F | EFED E2 z D | FF F2- FFFF | E2 G2 A2 F2 | %27
w: se peult va- nter, qui te tas-|te D'a- voir mis|la main à la pas- te.|Te- tin gril-|lé, Te- tin pen- dant, Te-|tin fles- try, * Te- tin ren-|dant, te- tin ren-|
 G4 z2 E2 | EECD EE F2 | z2 FF F/F/F/F/FD | E2 FF F/F/F/C/DD | C2 z C DFEC | DE F2 z4 | z4 E2 ED | %34
w: dant, Vi-|lai- ne bourbe en lieu de laict,|Le Di- a- ble te faict bien si|laid, Le Di- a- ble te faict bien si|laid, Te- tin pour trip- pe|re- pu- té,|Ou des- ro-|
 EEEE F2 E2 | z EED EEEE | F4 (3:2:2E4 F2 |[M:6/4] F4 E2 D4 C2 | B,2 B,4 A,4 C2 | C4 C2 A,4 B,2 | %40
w: bé en quel- que sor- te|De quel- que vieil- le chè- vre|mor- te. Te-|tin pro- pre pour|en En- fer Nour-|rir l'en- fant de|
[M:2/2] (3:2:2A,4 G,2 A,2 C2 | FGFF FD F2 | C2 C2 z2 C2 | FGFF FD F2 | C4 z2 C2 | D2 D2 D2 E2 | %46
w: Lu- ci- fer, Te-|tin bo- yau long d'u- ne gau-|* le, Te-|tasse à je- ter sur l'é- pau-|le Pour|fai- re (tout bien|
 F2 ED CFFG | F2 z2 z FFG | F3 E D2 C2 | C4 z FEE |[M:3/2] D2 z D DDDD EE F2 | F8 G4 | E4 F4 F4 | %53
w: com- pas- * sé) Ung chap- pe-|ron, ung chap- pe-|ron du temps pas-|sé, du temps pas-|sé. Quand on te voyt, il vient à maintz|Une en-|vy- e de-|
 D4 E8 |[M:2/2] C4 F2 FF | DFEE F2 CC | DCEE D2 C2 | E2 D3 C C2- | C2 B,2 (3:2:2C4 C2 | %59
w: dans les|mains De te pren-|dreIa- vec des gants dou- bles Pour|en don- ner cinq ou six|cou- * * *|* * ples De|
[M:6/4] E4 D2 F4 F2 | E4 D2 E2 E2 C2 | C4 D2 _E4 D2 |[M:2/2] (3C2 B,2 C2 C2 F2 | z2 F2 z2 A2 | %64
w: souf- flets sur le|nez de cel- le Qui|te ca- che sous|son ais- sel- le. Va,|va, va|
 AAAF FF E2 | z2 A2 AAAF | FFEE E2 E2 | F2 _E2 E2 C2 | C2 z C F2 E2 | D2 A,2 B,4 | G,4 A,4- | %71
w: grand vi- lain Te- tin pu- ant,|Tu four- ni- roys bien|en su- ant De ci- vet-|tes et de par-|fums Pour fai- re|cent mil- le|de- functz,|
 A,4 C4- | C4 D4- | D4 C4 | z2 F2 FFFF | EC DE F2 E2 | EEEE DC D2 | E2 F2 F2 z2 | F2 F2- F2 F2 | %79
w: * de-||* functz.|Te- tin de lay- deur|des- pi- teu- * se, Te-|tin, dont Na- ture est hon- teu-|se, Te- tin|des vi- * lains|
 G2 F2 E2 D2 | F2 F2 z2 _E2 | _EEEE EE D2 | B,2 F2 FFFF | GF F4 E2 | F2 FG F3 D | F D2 C C2 z2 | %86
w: le plus bra- ve,|te- tin, Te-|tin, dont le bout tous- jours ba-|ve, Te- tin, dont le bout|tous- jours ba- *|ve, Te- tin faict de|poix et de glus.|
 E2 z2 F2 z2 | E2 FF E/E/DDC | A,2 z2 D2 z2 | F2 FF E/E/DDC | D2 z F FF C2 | F2 EF FE/D/ E2 | %92
w: Bien, bien,|bien, bien ma plu- me, n'en par- lez|plus, Bien,|bien, bien ma plu- me, n'en par- lez|plus, Lais- sez- le là,|lais- sez- le là * * *|
 z2 F2 F2 F2 | G4 F4- | F8 | z2 E2 E2 E2 | D4 E2 F2 | FFDD CB, C2 | D2 z F FF G2- | G2 F2 CD C2 | %100
w: ven- tre sainct|Geor- ge,||ven- tre sainct|Geor- ge, Vous|me fe- riez ren- dre ma gor-|ge, vous me fe- riez|* ren- dre ma gor-|
 A,2 D2 DCCA, | CCCC z C D2- | D2 CB, C4 |] %103
w: ge, vous me fe- riez ren-|dre ma gor- ge, ma gor-|* ge. * *|
V:3
 z4 z4 c4 | c8 c4 | c8 A4 | d4 d8 |[M:2/2] c4 z2 cB | A2 AG A2 A2 | G2 c2 AA d2 | BBcc c2 A2 | %8
w: Te-|tin, qui|n'as rien|que la|peau, Te- tin|flac, te- tin de dra-|peau, Gran- de te- ti-|ne, lon- gue te- tas- se,|
 d2 dd dd d2- | d c2 B c2 c2 | z2 z A c2 AB | G4 FA A2 | z AAG AB c2 | z2 c2 cBcA | G2 d4 c2 | %15
w: Te- tin, doy- je di- re|* be- * zas- se,|be- zas- se, be-|zas- se, Te- tin|au grand vi- lain bout noir,|Com- me ce- luy d'un|en- * *|
 B4 (3:2:2A4 c2 |[M:6/4] c4 c2 d4 c2 | B4 A2 c4 A2 | c4 c2 d4 d2 |[M:2/2] (3:2:2d4 d2 c4- | %20
w: ton- noir, Te-|tin, qui brim- balle|à tous coups Sans|estre es- bran- lé,|ne se- coux,|
 c4 z2 G2 | c3 c c2 d2 | cB A2 G2 z B | c2 z2 c2 cc | cccA c2 z B | c2 c2 d4- | d2 d2 fedc | %27
w: * D'a-|voir mis la main|à la pas- te. Te-|tin, te- tin gril-|lé, Te- tin pen- dant, Te-|tin fles- try,|* Te- tin * * *|
 d2 d2 c2 z2 | c2 AA ccdd | c2 dd d/d/d/d/cB | c2 cc c/c/c/c/BA | G4 z4 | z2 c2 BAGA | %33
w: * ren- dant,|Vi- lai- ne bourbe en lieu de|laict, Le Di- a- ble te faict bien si|laid, Le Di- a- ble te faict bien si|laid,|Te- tin (ce cui- de-|
 BG A2 z ccF | cccc d2 c2 | z ccF cccc | d4 (3:2:2c4 c2 |[M:6/4] c4 c2 A4 A2 | F4 F2 F4 A2 | %39
w: jeem- prun- té), Ou des- ro-|bé en quel- que sor- te|De quel- que vieil- le chè- vre|mor- te. Te-|tin pro- pre pour|en En- fer Nour-|
 A4 G2 F4 G2 |[M:2/2] (3E2 F2 E2 F4 | z2 z F ABcB | AG A2 G2 z2 | F4 ABcB | AG A2 G c2 A- | %45
w: rir l'en- fant de|Lu- * ci- fer,|Te- tin bo- yau long|d'u- ne gau- le,|Te- tasse à je- ter|sur l'é- pau- le Pour fai-|
 AAdA B2 c2 | B4 A2 z2 | z AcB A2 z2 | z AcB A3 B/A/ | G2 G2 F2 z c |[M:3/2] A3 A A A2 F c2 d2 | %51
w: * re (tout bien com- pas-|sé) *|Ung chap- pe- ron,|ung chap- pe- ron du *|temps pas- sé. Quand|on te voyt, il vient à maintz|
 d8 d4 | c4 d4 c4 | B4 c8 |[M:2/2] A4 z4 | z2 c2 ccAc | BA GA B2 c2- | c2 B2 c4 | F4 (3:2:2G4 A2 | %59
w: Une en-|vy- e de-|dans les|mains|Pour en don- ner cinq|ou six cou- * * *||* ples De|
[M:6/4] c4 A2 d4 c2 | c4 A2 c2 c2 A2 | G4 A2 B4 A2 |[M:2/2] (3G2 F2 G2 F2 z2 | c2 z2 c2 ff | %64
w: souf- flets sur le|nez de cel- le Qui|te ca- che sous|son ais- sel- le.|Va, va grand vi-|
 ffed c2 z2 | c2 ff ffed | c2 c2 G2 c2 | d2 c3 B2 A | G2 A2 c3 c | A2 F2 G2 F2- | F2 E2 F4- | F8 | %72
w: lain Te- tin pu- ant,|Tu four- ni- roys bien en su-|ant De ci- vet-|tes et de par-|fums Pour fai- re|cent mil- le de-|* * functz,||
 F8 | G8 | F2 z F FFFF | cA G2 F2 c2 | cccc BG A2 | c4 A2 A2 | z2 A2 d2 c2 | _e2 c2 c2 A2 | %80
w: de-||functz. Te- tin de lay- deur|des- pi- teu- se, Te-|tin, dont Na- ture est hon- teu-|se, Te- tin,|té- tin des|vi- lains le plus|
 d2 d2 z BBB | BBcc B2 Bd | d4 z2 d2 | d2 d2 d2 B2 | c2 c2 z2 AB | cB A2 GA G2 | z2 A2 z2 c2 | %87
w: bra- ve, Te- tin, dont|le bout tous- jours ba- ve, Te-|tin, dont|le bout tous- jours|ba- ve, Te- tin|faict de poix et de glus.|Bien, bien,|
 z2 dc c/c/ABG | F2 d2 z2 c2 | z2 dc c/c/ABG | B3 A/G/ A2 z2 | c2 cc Accc | B2 d2 d2 d2 | %93
w: bien, bien ma plu- me, n'en par-|lez plus, Bien,|bien ma plu- me, n'en par- lez|plus, * * *|Lais- sez- le là, lais- sez- le|là ven- tre sainct|
 _e4 d2 c2 | c2 c2 d4 | c2 c2 cG c2- | c2 B2 c2 d2 | dcBA GF G2 | B4 z2 _e2 | _edcB AB G2 | %100
w: Geor- ge, ven-|tre sainct Geor-|ge, ven- tre sainct Geor-|* * ge, Vous|me fe- riez ren- dre ma gor-|ge, vous|me fe- riez ren- dre ma gor-|
 F2 z B BAGF | GAGG z A B2 | A8 |] %103
w: ge, vous me fe- riez ren-|dre ma gor- ge, ma gor-|ge.|
V:4
 z4 z4 F,4 | F,8 F,4 | C,8 D,4 | B,,6 C,2 D,2 E,2 |[M:2/2] F,4 z2 F,G, | D,2 F,C, F,2 F,2 | %6
w: Te-|tin, qui|n'as rien|que * la *|peau, Te- tin|flac, te- tin de dra-|
 C,4 F,2 D,2 | G,2 C,C, C,C, D,2 | B,,2 B,2 B,B,B,B, | B,F, G,2 D,4 | z2 z D, C,2 F,B,, | %11
w: peau, Grand' te-|ti- ne, lon- gue te- tas-|se, Te- tin, doy- je di-|re be- zas- se,|be- zas- se, be-|
 C,4 F,,2 F,2 | F,F,F,C, F,G, F,2 | C,2 C,C, C,G,E,F, | C,2 B,,4 C,2 | D,2 E,2 (3:2:2F,4 F,2 | %16
w: zas- se, Te-|tin au grand vi- lain bout noir,|Com- me ce- luy d'un en- ton-|noir, en- ton-|* * noir, Te-|
[M:6/4] F,4 F,2 B,4 F,2 | G,2 D,4 C,4 F,2 | C,4 C,2 B,,4 B,,2 |[M:2/2] (3:2:4B,,3 C, D,E, F,4- | %20
w: tin, qui brim- balle|à tous coups Sans|estre es- bran- lé,|ne * se- * coux,|
 F,4 z4 | F,2 F,3 F,D,B,, | F,G, D,2 G,,2 G,2 | F,3 F, F,F,F,F, | C,F,C,D, C,2 G,2 | %25
w: |D'a- voir mis la main|à la pas- te. Te-|tin gril- lé, Te- tin pen-|dant, Te- tin fles- try, Te-|
 F,3 F, F,F,F,F, | C,2 G,2 F,2 A,2 | G,4 z2 C,2 | C,C,F,D, C,2 B,,2 | F,2 B,B, B,/B,/B,/B,/F,G, | %30
w: tin ren- dant, te- tin ren-|dant, te- tin ren-|dant, Vi-|lai- ne bourbe en lieu de|laict, Le Di- a- ble te faict bien si|
 C,2 F,F, F,/F,/F,/F,/B,,B,, | C,4 z4 | z2 F,2 D,F,E,C, | D,E, F,2 C,2 C,D, | C,C,C,C, B,,2 C,2 | %35
w: laid, Le Di- a- ble te faict bien si|laid,|Te- tin (ce cui- de-|jeem- prun- té), Ou des- ro-|bé en quel- que sor- te|
 C,2 C,D, C,C,C,C, | B,,4 (3:2:2C,4 F,2 |[M:6/4] F,4 C,2 D,4 A,,2 | B,,2 B,,4 F,,4 F,2 | %39
w: De quel- que vieil- le chè- vre|mor- te. Te-|tin pro- pre pour|en En- fer Nour-|
 F,4 C,2 D,4 G,,2 |[M:2/2] (3A,,3 B,, C,2 F,,4 | z2 F,2 F,G, F,2 | F,2 F,2 C,2 F,,2 | %43
w: rir l'en- fant de|Lu- * ci- fer,|Te- tin bo- yau|long d'u- ne gaule,|
 z2 F,2 F,G,F,F, | F,2 F,2 C,2 F,,F, | D,2 D,2 G,2 C,2 | D,2 E,2 F,4 | z F,F,G, F,2 z2 | %48
w: Te- tasse à je- ter|sur l'é- pau- le Pour|fai- re (tout bien|com- pas- sé)|Ung chap- pe- ron,|
 z F,F,G, D,2 F,2 | C,2 C,2 F,,F,C,C, |[M:3/2] D,2 z D, D,D,D,D, C,C, B,,2 | B,8 G,4 | %52
w: ung chap- pe- ron du|temps pas- sé, du temps pas-|sé. Quand on te voyt, il vient à maintz|Une en-|
 A,4 D,4 F,4 | G,4 C,8 |[M:2/2] F,8 | z4 F,2 F,F, | D,F,E,C, G,2 A,2 | G,2 G,2 F,E,D,C, | %58
w: vy- e de-|dans les|mains|Pour en don-|ner cinq ou six cou- ples,|cinq ou six * * *|
 D,4 (3:2:2C,4 F,2 |[M:6/4] C,4 D,2 B,,4 F,2 | C,4 D,2 C,2 C,2 F,2 | C,4 F,2 _E,4 F,2 | %62
w: cou- ples, De|souf- flets sur le|nez de cel- le Qui|te ca- che sous|
[M:2/2] (3C,2 D,2 C,2 F,2 z2 | F,2 z2 F,2 F,F, | F,F,A,B, F,2 z2 | F,2 F,F, F,F,A,B, | %66
w: son ais- sel- le.|Va, va grand vi-|lain Te- tin pu- ant,|Tu four- ni- roys bien en su-|
 F,2 C,2 C,2 C,2 | B,,2 C,2 _E,2 F,2 | C,2 F,2 F,2 C,2 | D,2 D,2 B,,4 | C,4 F,2 C2 | %71
w: ant De ci- vet-|tes et de par-|fums Pour fai- re|cent mil- le|de- functz, Pour|
 C2 B,2 A,2 G,2 | F,2 E,2 D,2 C,2 | B,,4 C,4 | D,8 | z4 z2 C,2 | C,C,C,C, G,E, D,2 | %77
w: fai- re cent mil-|le de- functz. *|||Te-|tin, dont Na- ture est hon- teu-|
 C,2 F,,2 F,,4 | z2 F,2 D,2 F,2 | _E,2 F,2 C,2 D,2 | B,,2 B,,2 _E,2 E,E, | _E,E,C,C, E,2 B,,2 | %82
w: se, Te- tin,|té- tin des|vi- lains le plus|bra- ve, Te- tin, dont|le bout tous- jours ba- ve,|
 z B,,B,,B,, B,,B,,B,A, | G,8 | F,4 z2 F,G, | F,G,D,F, C,2 C,2 | z2 F,2 z2 C,2 | %87
w: Te- tin, dont le bout tous- jours|ba-|ve, Te- tin|faict de poix et de glus.|Bien, bien,|
 z2 B,,F, C,/C,/D,B,,C, | F,,2 B,,2 z2 F,2 | z2 B,,F, C,/C,/D,B,,C, | B,,4 z2 F,2 | %91
w: bien ma plu- me, n'en par- lez|plus, bien, Bien,|bien ma plu- me, n'en par- lez|plus, Lais-|
 F,F,C,F, F,F, C,2 | z2 B,,2 B,,2 B,,2 | _E,4 B,,2 F,2 | F,2 F,2 B,4 | F,2 C,2 C,D, E,C, | %96
w: sez- le là, lais- sez- le là|ven- tre sainct|Geor- ge, ven-|tre sainct Geor-|ge, ven- tre sainct Geor- *|
 G,4 C,2 B,,2 | B,,B,,B,,B,, C,D, C,2 | B,,2 B,2 B,A,G,F, | _E,E, F,3 B,, C,2 | %100
w: * ge, Vous|me fe- riez ren- dre ma gor-|ge, vous me fe- riez ren-|dre ma gor- * *|
 D,2 z B,, B,,F,C,D, | C,F,,C,C, z F,, B,,2 | F,,8 |] %103
w: ge, vous me fe- riez ren-|dre ma gor- ge, ma gor-|ge.|

